X:712
T:Major-Minor Tune
M:6/8
K:D
"D"FAd "G"GBd|"D"FAd fed|"A7"cBc ABc|"D"dfe dcB|\
"D"FAd "G"GBd|"D"FAd fed|"A7"cBc ABc|"D"dfe d3::
"Bm"dBB fBB|dBd fed|"A"cAA eAA|cAc edc|\
"Bm"dBB fBB|dBd fed|"A7"cBc ABc|"D"dfe d3:|
